X:86
T:Flogging Reel 
T:Flagon Reel
B:CRE2.184 (RÃÂÃÂÃÂÃÂ­l an Lasctha)
F:file ID: cre.2/086flog
N:Source omits the F naturals in C4.
R:reel
M:C
Q:180
K:G
BGGG (3BAG dG|BGGG (3BAG gd|BGGA (3BdB dB|ADDD AB (3dcA|
BGGG (3BAG dG|BGGG (3BAG gd|BGGA (3BdB dB|ADD/F/D ABd/c/A||
%B
g2gd BGBd|gbag (3efg ab|g2ge dedB|ADD/E/D ABd/c/A|
g2gd BGBd|gbag (3efg ag|bgag gedB|Add2 ABd/c/A||
%C
(3Bcd gd (3Bcd gd|(3Bcd gd BGGG|(3ABc =fc Acfd|(3ABc =fc A=FF2|
Bdgd Bdgd|Bdgd g2ga|bgab gedB|ADAD ABd/c/A||

%%%

